FireFox/images/tab/tab-bottom-corner-left-wave-clipped.svg

<svg width="36" height="36" viewBox="0 0 36 36" xmlns="http://www.w3.org/2000/svg"><path fill="context-fill" d="M 18 18 C 18.1875 19.125 18.375016 20.250016 18.574219 21.351562 C 18.67382 21.902336 18.775891 22.448254 18.882812 22.984375 C 18.989734 23.520496 19.101578 24.046891 19.21875 24.5625 C 19.335922 25.078109 19.459492 25.583027 19.589844 26.072266 C 19.720195 26.561504 19.857445 27.03518 20.003906 27.492188 C 20.150367 27.949195 20.305203 28.389676 20.470703 28.808594 C 20.553453 29.018053 20.638503 29.221084 20.726562 29.419922 C 20.814622 29.61876 20.906266 29.812516 21 30 C 21.093734 30.187484 21.189557 30.368972 21.289062 30.544922 C 21.388568 30.720872 21.490611 30.891859 21.595703 31.056641 C 21.700796 31.221422 21.809425 31.381177 21.919922 31.535156 C 22.030419 31.689135 22.144048 31.836926 22.259766 31.980469 C 22.375483 32.124011 22.492526 32.263012 22.613281 32.396484 C 22.734036 32.529957 22.858765 32.657481 22.984375 32.78125 C 23.109985 32.905019 23.236907 33.02424 23.367188 33.138672 C 23.497468 33.253103 23.630856 33.36329 23.765625 33.46875 C 23.900394 33.57421 24.036708 33.67463 24.175781 33.771484 C 24.314854 33.868339 24.456415 33.962166 24.599609 34.050781 C 24.742804 34.139397 24.888024 34.223945 25.035156 34.304688 C 25.182289 34.38543 25.331534 34.46192 25.482422 34.535156 C 25.784197 34.681628 26.092508 34.812998 26.408203 34.931641 C 26.723898 35.050283 27.046852 35.156258 27.375 35.25 C 27.703148 35.343742 28.035864 35.426276 28.375 35.498047 C 28.714136 35.569818 29.059545 35.630864 29.408203 35.683594 C 29.756861 35.736324 30.110084 35.779788 30.466797 35.816406 C 30.82351 35.853024 31.183572 35.882814 31.546875 35.90625 C 31.910178 35.929686 32.276105 35.947755 32.644531 35.960938 C 33.012957 35.97412 33.383776 35.982422 33.755859 35.988281 C 34.500026 35.999999 35.25 36 36 36 L 36 0 C 30 0 24.0005 -0.0005 21 6 C 19.49975 9.00025 18.75 13.5 18 18 z"/></svg>

<svg width="36" height="36" viewBox="0 0 36 36" xmlns="http://www.w3.org/2000/svg">
  <path fill="context-fill" stroke="context-stroke" stroke-opacity="context-stroke-opacity" stroke-width="1.5" stroke-dasharray="60, 100" d="M36 0c-6 0-12 0-15 6-1.5 3-2.25 7.5-3 12 .188 1.125.375 2.25.574 3.352.1.55.202 1.096.309 1.632.107.536.219 1.063.336 1.578.117.516.24 1.021.37 1.51.131.49.268.963.415 1.42.146.457.301.898.467 1.317a14.336 14.336 0 0 0 .818 1.736 9.98 9.98 0 0 0 1.695 2.236 9.134 9.134 0 0 0 2.498 1.754c.302.147.61.278.926.397.316.118.639.224.967.318.328.094.66.176 1 .248.34.072.685.133 1.033.186.71.102 1.423.176 2.139.222.363.024.73.042 1.098.055.368.013.739.021 1.11.027C34.5 36 35.25 36 36 36V0"/>
</svg>
